; generated by PrusaSlicer 2.5.0+win64 on 2022-11-26 at 01:40:43 UTC


;
;
; 

; external perimeters extrusion width = 0.60mm
; perimeters extrusion width = 0.50mm
; infill extrusion width = 0.50mm
; solid infill extrusion width = 0.50mm
; top infill extrusion width = 0.45mm
; first layer extrusion width = 0.42mm

M73 P0 R97
M73 Q0 S98
M201 X1000 Y1000 Z200 E5000 ; sets maximum accelerations, mm/sec^2
M203 X200 Y200 Z12 E120 ; sets maximum feedrates, mm / sec
M204 P1250 R1250 T1250 ; sets acceleration (P, T) and retract acceleration (R), mm/sec^2
M205 X8.00 Y8.00 Z0.40 E4.50 ; sets the jerk limits, mm/sec
M205 S0 T0 ; sets the minimum extruding and travel feed rate, mm/sec
M107
;TYPE:Custom
M862.3 P "MK3S" ; printer model check
M862.1 P0.4 ; nozzle diameter check
M115 U3.11.0 ; tell printer latest fw version
G90 ; use absolute coordinates
M83 ; extruder relative mode
M104 S240 ; set extruder temp
M140 S85 ; set bed temp
M190 S85 ; wait for bed temp
M109 S240 ; wait for extruder temp
G28 W ; home all without mesh bed level
G80 ; mesh bed leveling

G1 Z0.2 F720
G1 Y-3 F1000 ; go outside print area
G92 E0
G1 X60 E9 F1000 ; intro line
G1 X100 E12.5 F1000 ; intro line

G92 E0
M221 S95

; Don't change E values below. Excessive value can damage the printer.

M907 E538 ; set extruder motor current
G21 ; set units to millimeters
G90 ; use absolute coordinates
M83 ; use relative distances for extrusion
M900 K0.08 ; Filament gcode LA 1.5
M900 K45 ; Filament gcode LA 1.0
M107
;LAYER_CHANGE
;Z:0.2
;HEIGHT:0.2
;BEFORE_LAYER_CHANGE
G92 E0.0
;0.2


G1 E-1 F2100
G1 Z.2 F720
;AFTER_LAYER_CHANGE
;0.2
G1 Z.4
G1 X17.069 Y13.326 F10800
G1 Z.2 F720
G1 E1 F2100
M204 S800
;TYPE:Skirt/Brim
;WIDTH:0.42
G1 F1200
G1 X17.794 Y12.533 E.0337
G1 X18.388 Y12.085 E.02332
G1 X19.006 Y11.757 E.02195
G1 X19.707 Y11.515 E.02324
G1 X20.4 Y11.392 E.02208
G1 X21.146 Y11.379 E.02339
G1 X21.842 Y11.476 E.02202
G1 X22.553 Y11.694 E.02332
G1 X23.526 Y12.206 E.03448
G1 X238.092 Y162.483 E8.21351
G1 X238.597 Y162.971 E.02202
G1 X239.046 Y163.566 E.02335
G1 X239.375 Y164.186 E.02202
G1 X239.617 Y164.89 E.02335
G1 X239.739 Y165.582 E.02203
G1 X239.751 Y166.326 E.02333
G1 X239.653 Y167.023 E.02205
G1 X239.435 Y167.733 E.02329
G1 X239.126 Y168.366 E.02208
G1 X219.459 Y196.505 E1.07643
G1 X219.081 Y196.927 E.01774
G1 X217.923 Y197.945 E.04836
G1 X217.016 Y198.442 E.03242
G1 X215.455 Y198.895 E.05096
G1 X214.562 Y198.977 E.02814
G1 X212.847 Y198.809 E.05402
G1 X212.061 Y198.592 E.02557
G1 X210.46 Y197.833 E.05555
G1 X209.94 Y197.498 E.01938
G1 X12.905 Y30.462 E8.09913
G1 X11.773 Y29.313 E.05057
G1 X11.322 Y28.671 E.02458
G1 X10.578 Y27.117 E.05402
G1 X10.35 Y26.249 E.02814
G1 X10.241 Y24.628 E.05096
G1 X10.398 Y23.606 E.03242
G1 X10.955 Y22.178 E.04804
G1 X11.222 Y21.678 E.01778
G1 X17.034 Y13.375 E.31778
M204 S1000
; printing object PS5 digital skate - L+R.stl id:0 copy 0
;WIPE_START
G1 F8640
G1 X17.794 Y12.533 E-.2619
G1 X18.388 Y12.085 E-.17172
G1 X19.006 Y11.757 E-.16163
M73 Q0 S97
G1 X19.707 Y11.515 E-.17117
G1 X20.4 Y11.392 E-.16264
G1 X20.491 Y11.39 E-.02095
;WIPE_END
G1 E-.05 F2100
G1 Z.4 F720
G1 X176.62 Y140.891 F10800
G1 Z.2 F720
M73 P0 R96
G1 E1 F2100
M204 S800
;TYPE:Perimeter
;WIDTH:0.419999
G1 F1200
G1 X176.442 Y140.908 E.00559
G1 X175.913 Y140.835 E.01676
G1 X175.682 Y140.749 E.00772
G1 X175.155 Y140.394 E.01994
G1 X171.368 Y136.72 E.16544
G1 X166.584 Y132.196 E.20641
G1 X161.746 Y127.744 E.20617
G1 X156.847 Y123.365 E.20601
G1 X151.786 Y118.947 E.21065
G1 X146.697 Y114.574 E.21037
G1 X141.504 Y110.179 E.2133
G1 X141.091 Y109.687 E.02015
G1 X140.991 Y109.504 E.00654
G1 X140.816 Y108.964 E.01782
G1 X140.789 Y108.761 E.0064
G1 X140.817 Y108.194 E.01782
G1 X140.865 Y107.991 E.00654
G1 X141.138 Y107.405 E.02027
G1 X142.267 Y105.793 E.06171
G1 X142.725 Y105.339 E.02021
G1 X142.911 Y105.221 E.00692
G1 X143.43 Y105.019 E.01744
G1 X143.647 Y104.981 E.00692
G1 X144.203 Y104.993 E.01744
G1 X144.419 Y105.041 E.00692
G1 X145.004 Y105.31 E.02021
G1 X181.809 Y131.082 E1.40878
G1 X182.263 Y131.54 E.02021
G1 X182.382 Y131.726 E.00692
G1 X182.583 Y132.244 E.01744
G1 X182.621 Y132.462 E.00692
G1 X182.609 Y133.018 E.01744
G1 X182.562 Y133.233 E.00692
G1 X182.292 Y133.819 E.02021
G1 X177.869 Y140.135 E.24178
G1 X177.418 Y140.584 E.01994
G1 X177.208 Y140.712 E.00772
G1 X176.679 Y140.886 E.01744
M204 S1000
G1 X176.613 Y140.514 F10800
M204 S800
;TYPE:External perimeter
G1 F1200
G1 X176.58 Y140.527 E.00111
G1 X175.964 Y140.462 E.01942
G1 X175.417 Y140.123 E.02018
G1 X171.63 Y136.449 E.16544
G1 X166.842 Y131.92 E.20665
G1 X161.999 Y127.464 E.20634
G1 X157.096 Y123.083 E.20616
G1 X152.033 Y118.662 E.21077
G1 X146.942 Y114.287 E.21046
G1 X141.748 Y109.891 E.21334
G1 X141.383 Y109.449 E.01798
G1 X141.174 Y108.847 E.01997
G1 X141.193 Y108.212 E.01992
G1 X141.447 Y107.621 E.02016
G1 X142.576 Y106.009 E.06171
G1 X142.986 Y105.612 E.0179
G1 X143.566 Y105.371 E.01971
G1 X144.195 Y105.37 E.01971
G1 X144.788 Y105.619 E.02016
G1 X181.593 Y131.39 E1.40878
G1 X181.991 Y131.8 E.0179
G1 X182.232 Y132.381 E.01971
G1 X182.232 Y133.009 E.01971
G1 X182.001 Y133.57 E.01901
G1 X177.56 Y139.919 E.24294
G1 X177.157 Y140.312 E.01766
G1 X176.67 Y140.493 E.01629
M204 S1000
G1 X176.61 Y140.549 F10800
;WIPE_START
G1 F8640
G1 X176.58 Y140.527 E-.02202
G1 X175.964 Y140.462 E-.14301
G1 X175.417 Y140.123 E-.1486
G1 X173.439 Y138.204 E-.63637
;WIPE_END
G1 E-.05 F2100
G1 Z.4 F720
G1 X216.806 Y183.213 F10800
G1 Z.2 F720
G1 E1 F2100
M204 S800
;TYPE:Perimeter
G1 F1200
G1 X216.619 Y183.318 E.00675
G1 X216.019 Y183.484 E.01952
G1 X215.352 Y183.337 E.02142
G1 X215.113 Y183.208 E.00851
G1 X214.725 Y182.855 E.01644
G1 X212.046 Y179.539 E.13366
G1 X207.69 Y174.598 E.20654
G1 X203.296 Y169.728 E.20565
G1 X198.872 Y164.893 E.20548
G1 X194.407 Y160.09 E.2056
G1 X189.898 Y155.324 E.20572
G1 X185.342 Y150.598 E.20582
G1 X183.605 Y148.834 E.07763
G1 X183.234 Y148.305 E.02025
G1 X183.154 Y148.126 E.00614
G1 X183.01 Y147.562 E.01826
G1 X183.042 Y146.795 E.02409
G1 X183.092 Y146.605 E.00614
G1 X183.32 Y146.11 E.01709
G1 X188.75 Y138.34 E.29721
G1 X189.208 Y137.887 E.02021
G1 X189.394 Y137.768 E.00692
G1 X189.912 Y137.567 E.01744
G1 X190.13 Y137.528 E.00692
G1 X190.686 Y137.54 E.01744
G1 X190.901 Y137.588 E.00692
G1 X191.487 Y137.858 E.02021
G1 X228.292 Y163.629 E1.40878
G1 X228.746 Y164.087 E.02021
G1 X228.864 Y164.273 E.00692
G1 X229.066 Y164.792 E.01744
G1 X229.104 Y165.009 E.00692
G1 X229.092 Y165.565 E.01744
G1 X229.044 Y165.781 E.00692
G1 X228.775 Y166.366 E.02021
G1 X217.323 Y182.72 E.62598
G1 X216.859 Y183.183 E.02057
M204 S1000
G1 X216.424 Y182.969 F10800
M204 S800
;TYPE:External perimeter
G1 F1200
G1 X216.05 Y183.099 E.01242
G1 X215.446 Y182.972 E.01934
G1 X214.979 Y182.576 E.01921
G1 X212.335 Y179.296 E.1321
G1 X207.971 Y174.347 E.20687
G1 X203.575 Y169.474 E.20576
G1 X199.149 Y164.638 E.20557
G1 X194.682 Y159.833 E.2057
M73 Q1 S97
G1 X190.171 Y155.064 E.20582
M73 P1 R96
G1 X185.612 Y150.335 E.20594
G1 X183.874 Y148.569 E.07769
G1 X183.546 Y148.093 E.01814
G1 X183.375 Y147.469 E.02028
G1 X183.418 Y146.826 E.0202
G1 X183.663 Y146.268 E.01911
G1 X189.059 Y138.557 E.2951
G1 X189.468 Y138.159 E.0179
G1 X190.049 Y137.918 E.01971
G1 X190.678 Y137.917 E.01971
G1 X191.271 Y138.167 E.02016
G1 X228.076 Y163.938 E1.40878
G1 X228.473 Y164.348 E.0179
G1 X228.714 Y164.928 E.01971
G1 X228.715 Y165.557 E.01971
G1 X228.466 Y166.15 E.02016
G1 X217.015 Y182.504 E.62598
G1 X216.622 Y182.9 E.01748
G1 X216.481 Y182.949 E.00469
M204 S1000
G1 X216.393 Y183.364 F10800
;WIPE_START
G1 F8640
G1 X216.05 Y183.099 E-.10532
G1 X215.446 Y182.972 E-.14245
G1 X214.979 Y182.576 E-.14146
G1 X213.455 Y180.685 E-.56076
;WIPE_END
G1 E-.05 F2100
G1 Z.4 F720
G1 X213.481 Y195.374 F10800
G1 Z.2 F720
G1 E1 F2100
M204 S800
;TYPE:Perimeter
;WIDTH:0.641944
G1 F1200
G1 X213.563 Y195.347 E.00427
;WIDTH:0.600095
G1 X213.645 Y195.321 E.00398
;WIDTH:0.558246
G1 X213.727 Y195.295 E.00368
;WIDTH:0.516397
G1 X213.808 Y195.269 E.00338
;WIDTH:0.474548
G1 X213.89 Y195.243 E.00308
;WIDTH:0.432699
G1 X213.972 Y195.217 E.00278
;WIDTH:0.431887
G1 X214.2 Y195.15 E.0077
;WIDTH:0.472923
G1 X214.429 Y195.083 E.00852
;WIDTH:0.513959
G1 X214.658 Y195.017 E.00933
;WIDTH:0.554995
G1 X214.886 Y194.95 E.01014
G1 X214.938 Y194.905 E.00292
;WIDTH:0.522046
G1 X214.99 Y194.859 E.00273
;WIDTH:0.489096
G1 X215.358 Y194.594 E.01684
;WIDTH:0.454548
G1 X215.726 Y194.328 E.01554
;WIDTH:0.419999
G1 X215.874 Y194.185 E.00645
G1 X216.8 Y192.883 E.0501
G1 X216.904 Y192.57 E.01035
G1 X216.912 Y192.269 E.00944
G1 X216.824 Y191.951 E.01035
G1 X215.917 Y190.523 E.05304
G1 X214.774 Y188.9 E.06223
G1 X210.693 Y183.325 E.21665
G1 X209.485 Y181.804 E.0609
G1 X205.258 Y176.795 E.20549
G1 X200.913 Y171.907 E.20507
G1 X196.536 Y167.047 E.20507
G1 X192.117 Y162.219 E.2052
G1 X187.64 Y157.441 E.2053
G1 X183.103 Y152.741 E.20483
G1 X178.514 Y148.093 E.20479
G1 X173.875 Y143.498 E.20474
G1 X169.19 Y138.968 E.20433
G1 X164.437 Y134.487 E.20482
G1 X159.619 Y130.068 E.20498
G1 X154.746 Y125.727 E.20463
G1 X149.707 Y121.342 E.20944
G1 X144.629 Y116.993 E.20959
G1 X139.521 Y112.683 E.20957
G1 X134.384 Y108.408 E.20955
G1 X129.22 Y104.165 E.20955
G1 X124.032 Y99.952 E.20955
G1 X113.593 Y91.605 E.41905
G1 X103.087 Y83.345 E.41904
G1 X92.533 Y75.152 E.41892
G1 X86.595 Y70.594 E.23473
G1 X80.624 Y66.071 E.23486
G1 X74.62 Y61.586 E.23495
G1 X68.584 Y57.143 E.23501
G1 X62.515 Y52.744 E.23503
G1 X56.412 Y48.392 E.23502
G1 X50.276 Y44.089 E.23498
G1 X44.105 Y39.84 E.23492
G1 X37.9 Y35.645 E.23483
G1 X31.661 Y31.509 E.23472
G1 X25.386 Y27.434 E.23458
G1 X19.08 Y23.41 E.23456
G1 X17.104 Y22.181 E.07296
G1 X16.931 Y22.109 E.00586
G1 X16.692 Y22.107 E.0075
G1 X16.377 Y22.171 E.01009
G1 X16.027 Y22.401 E.01313
G1 X15.251 Y23.509 E.0424
G1 X14.738 Y24.335 E.03051
G1 X14.498 Y24.881 E.01871
;WIDTH:0.465556
G1 X14.414 Y25.056 E.0068
;WIDTH:0.511112
G1 X14.33 Y25.23 E.00754
;WIDTH:0.556668
G1 X14.246 Y25.405 E.00827
G1 X14.246 Y25.763 E.0153
;WIDTH:0.540868
G1 X14.261 Y25.921 E.00656
;WIDTH:0.503363
G1 X14.277 Y26.078 E.00607
;WIDTH:0.465857
G1 X14.292 Y26.236 E.00557
;WIDTH:0.428352
G1 X14.307 Y26.394 E.00508
;WIDTH:0.432698
G1 X14.311 Y26.479 E.00278
;WIDTH:0.474549
G1 X14.314 Y26.565 E.00308
;WIDTH:0.5164
G1 X14.318 Y26.651 E.00338
;WIDTH:0.558252
G1 X14.321 Y26.737 E.00368
;WIDTH:0.600103
G1 X14.325 Y26.822 E.00398
;WIDTH:0.641954
G1 X14.328 Y26.908 E.00427
G1 X14.277 Y26.856 E.00364
;WIDTH:0.593666
G1 X14.225 Y26.805 E.00335
;WIDTH:0.545378
G1 X14.173 Y26.753 E.00305
;WIDTH:0.49709
G1 X14.122 Y26.701 E.00276
;WIDTH:0.448802
G1 X14.049 Y26.583 E.00467
;WIDTH:0.419824
G1 X13.977 Y26.465 E.00434
;WIDTH:0.428352
G1 X13.926 Y26.315 E.00508
;WIDTH:0.465857
G1 X13.875 Y26.165 E.00557
;WIDTH:0.503363
G1 X13.824 Y26.015 E.00607
;WIDTH:0.540868
G1 X13.772 Y25.865 E.00656
;WIDTH:0.556668
G1 X13.733 Y25.417 E.01924
G1 X13.704 Y25.299 E.00517
;WIDTH:0.515495
G1 X13.676 Y25.181 E.00476
;WIDTH:0.474322
G1 X13.647 Y25.064 E.00434
;WIDTH:0.433148
G1 X13.611 Y24.625 E.01429
;WIDTH:0.419999
G1 X14.046 Y23.508 E.03758
G1 X19.715 Y15.413 E.30987
G1 X20.105 Y14.982 E.01822
G1 X20.449 Y14.799 E.01221
G1 X20.833 Y14.732 E.01221
G1 X21.219 Y14.786 E.01221
G1 X21.639 Y14.991 E.01468
G1 X235.718 Y164.892 E8.19421
G1 X236.148 Y165.283 E.01821
G1 X236.331 Y165.626 E.0122
G1 X236.398 Y166.01 E.01222
G1 X236.371 Y166.203 E.0061
G1 X236.344 Y166.397 E.00615
G1 X236.137 Y166.82 E.01475
G1 X216.773 Y194.476 E1.05855
G1 X215.944 Y195.204 E.0346
G1 X215.781 Y195.293 E.00582
;WIDTH:0.454548
G1 X215.514 Y195.352 E.00937
;WIDTH:0.489096
G1 X215.246 Y195.412 E.01016
;WIDTH:0.51499
G1 X214.949 Y195.475 E.01194
;WIDTH:0.540884
G1 X214.651 Y195.539 E.01259
G1 X214.455 Y195.541 E.00814
;WIDTH:0.495667
G1 X214.258 Y195.544 E.0074
;WIDTH:0.45045
G1 X214.062 Y195.546 E.00666
;WIDTH:0.405233
G1 X213.865 Y195.548 E.00592
;WIDTH:0.407004
G1 X213.801 Y195.519 E.00213
;WIDTH:0.453992
G1 X213.737 Y195.49 E.0024
;WIDTH:0.50098
G1 X213.673 Y195.461 E.00268
;WIDTH:0.547968
G1 X213.609 Y195.432 E.00295
;WIDTH:0.594956
G1 X213.545 Y195.403 E.00323
;WIDTH:0.641944
G1 X213.536 Y195.398 E.00051
M204 S1000
;WIPE_START
G1 F8640
G1 X213.563 Y195.347 E-.01333
G1 X213.645 Y195.321 E-.01981
G1 X213.727 Y195.295 E-.01981
G1 X213.808 Y195.269 E-.01981
G1 X213.89 Y195.243 E-.01981
G1 X213.972 Y195.217 E-.01981
G1 X214.2 Y195.15 E-.055
G1 X214.429 Y195.083 E-.055
G1 X214.658 Y195.017 E-.055
G1 X214.886 Y194.95 E-.055
G1 X214.938 Y194.905 E-.01585
G1 X214.99 Y194.859 E-.01585
G1 X215.358 Y194.594 E-.10481
G1 X215.726 Y194.328 E-.10481
G1 X215.874 Y194.185 E-.04749
G1 X216.699 Y193.025 E-.32878
;WIPE_END
G1 E-.05 F2100
G1 Z.4 F720
G1 X210.507 Y193.129 F10800
G1 Z.2 F720
G1 E1 F2100
M204 S800
;TYPE:External perimeter
;WIDTH:0.490841
G1 F1200
G1 X210.619 Y193.143 E.00418
G1 X210.71 Y193.268 E.00579
;WIDTH:0.492757
G1 X211.213 Y193.911 E.03051
G1 X211.725 Y194.433 E.02734
;WIDTH:0.514783
G1 X211.922 Y194.55 E.00899
;WIDTH:0.553769
G1 X212.119 Y194.667 E.00973
;WIDTH:0.562294
G1 X212.68 Y194.919 E.02659
G1 X212.78 Y194.919 E.00429
;WIDTH:0.517729
G1 X213.31 Y194.899 E.02096
;WIDTH:0.468864
G1 X213.841 Y194.879 E.0188
;WIDTH:0.419999
G1 X214.762 Y194.517 E.03104
G1 X215.566 Y193.966 E.03056
G1 X216.492 Y192.664 E.0501
G1 X216.527 Y192.56 E.00345
G1 X216.506 Y192.153 E.01278
G1 X215.608 Y190.74 E.05248
G1 X214.468 Y189.12 E.06211
G1 X210.384 Y183.542 E.21678
G1 X209.197 Y182.047 E.05985
G1 X204.977 Y177.048 E.20511
G1 X200.631 Y172.157 E.20515
G1 X196.255 Y167.3 E.20499
G1 X191.841 Y162.475 E.20505
G1 X187.371 Y157.705 E.20497
M73 Q1 S96
G1 X182.836 Y153.007 E.20474
G1 X178.25 Y148.363 E.20463
G1 X173.614 Y143.771 E.20459
M73 P1 R95
G1 X168.924 Y139.235 E.20458
G1 X164.177 Y134.76 E.20455
G1 X159.369 Y130.351 E.20454
G1 X154.499 Y126.012 E.20451
G1 X149.459 Y121.626 E.20948
G1 X144.384 Y117.28 E.2095
G1 X139.278 Y112.971 E.20948
G1 X134.143 Y108.698 E.20947
G1 X128.981 Y104.456 E.20948
G1 X123.794 Y100.245 E.20948
G1 X113.358 Y91.9 E.41896
G1 X102.854 Y83.642 E.41895
G1 X92.302 Y75.45 E.41885
G1 X86.365 Y70.893 E.23466
G1 X80.396 Y66.371 E.23479
G1 X74.395 Y61.888 E.23487
G1 X68.361 Y57.447 E.23492
G1 X62.293 Y53.049 E.23494
G1 X56.193 Y48.699 E.23493
G1 X50.059 Y44.398 E.23489
G1 X43.891 Y40.15 E.23482
G1 X37.689 Y35.958 E.23473
G1 X31.452 Y31.823 E.23461
G1 X25.181 Y27.75 E.23446
G1 X18.882 Y23.732 E.23427
G1 X16.905 Y22.501 E.07303
G1 X16.847 Y22.477 E.00195
G1 X16.452 Y22.541 E.01254
G1 X16.336 Y22.617 E.00438
G1 X15.56 Y23.725 E.0424
G1 X15.083 Y24.487 E.0282
G1 X14.691 Y25.414 E.03156
G1 X14.67 Y26.401 E.03096
G1 X14.823 Y26.834 E.01438
;WIDTH:0.469672
G1 X14.891 Y27.058 E.00833
;WIDTH:0.519345
G1 X14.959 Y27.283 E.0093
;WIDTH:0.569017
G1 X15.027 Y27.508 E.01027
G1 X15.389 Y27.86 E.0221
;WIDTH:0.538847
G1 X15.752 Y28.212 E.02083
;WIDTH:0.515879
G1 X17.149 Y29.107 E.06526
G1 X17.181 Y29.246 E.00561
G1 X17.031 Y29.477 E.01085
G1 X16.899 Y29.506 E.00531
G1 X15.499 Y28.603 E.0655
;WIDTH:0.508677
G1 X15.496 Y28.601 E.00017
;WIDTH:0.536999
G1 X15.253 Y28.422 E.01236
;WIDTH:0.565329
G1 X15.011 Y28.244 E.01307
;WIDTH:0.569017
G1 X14.649 Y27.874 E.02262
G1 X14.562 Y27.813 E.00466
;WIDTH:0.529786
G1 X14.475 Y27.753 E.00431
;WIDTH:0.490554
G1 X14.251 Y27.551 E.01121
;WIDTH:0.455277
G1 X14.027 Y27.349 E.01033
;WIDTH:0.419999
G1 X13.888 Y27.119 E.00843
G1 X13.321 Y25.935 E.04116
G1 X13.229 Y24.566 E.04302
G1 X13.711 Y23.329 E.04164
G1 X19.488 Y15.079 E.3158
G1 X19.876 Y14.677 E.01748
G1 X20.325 Y14.438 E.01596
G1 X20.826 Y14.35 E.01596
G1 X21.33 Y14.421 E.01596
G1 X21.831 Y14.665 E.01748
G1 X236.052 Y164.666 E8.19964
G1 X236.453 Y165.053 E.01748
M73 P2 R95
M73 Q2 S96
G1 X236.692 Y165.502 E.01595
G1 X236.78 Y166.004 E.01597
G1 X236.745 Y166.256 E.00798
G1 X236.709 Y166.509 E.00802
G1 X236.463 Y167.012 E.01755
G1 X217.056 Y194.729 E1.0609
G1 X216.058 Y195.605 E.04164
G1 X214.867 Y195.951 E.03888
G1 X214.609 Y195.974 E.00813
G1 X213.708 Y195.886 E.02837
G1 X213.172 Y195.805 E.01702
;WIDTH:0.467431
G1 X212.936 Y195.667 E.00964
;WIDTH:0.514863
G1 X212.7 Y195.529 E.01072
;WIDTH:0.562294
