; generated by PrusaSlicer 2.5.0+win64 on 2022-11-26 at 00:34:46 UTC


;
;
; 

; external perimeters extrusion width = 0.45mm
; perimeters extrusion width = 0.45mm
; infill extrusion width = 0.45mm
; solid infill extrusion width = 0.45mm
; top infill extrusion width = 0.40mm
; first layer extrusion width = 0.42mm

M73 P0 R31
M73 Q0 S31
M201 X1000 Y1000 Z200 E5000 ; sets maximum accelerations, mm/sec^2
M203 X200 Y200 Z12 E120 ; sets maximum feedrates, mm / sec
M204 P1250 R1250 T1250 ; sets acceleration (P, T) and retract acceleration (R), mm/sec^2
M205 X8.00 Y8.00 Z0.40 E4.50 ; sets the jerk limits, mm/sec
M205 S0 T0 ; sets the minimum extruding and travel feed rate, mm/sec
M107
;TYPE:Custom
M862.3 P "MK3S" ; printer model check
M862.1 P0.4 ; nozzle diameter check
M115 U3.11.0 ; tell printer latest fw version
G90 ; use absolute coordinates
M83 ; extruder relative mode
M104 S250 ; set extruder temp
M140 S50 ; set bed temp
M190 S50 ; wait for bed temp
M109 S250 ; wait for extruder temp
G28 W ; home all without mesh bed level
G80 ; mesh bed leveling

G1 Z0.2 F720
G1 Y-3 F1000 ; go outside print area
G92 E0
G1 X60 E9 F1000 ; intro line
G1 X100 E12.5 F1000 ; intro line

G92 E0
M221 S95

; Don't change E values below. Excessive value can damage the printer.
M907 E430 ; set extruder motor current
G21 ; set units to millimeters
G90 ; use absolute coordinates
M83 ; use relative distances for extrusion
M900 K0
M107
;LAYER_CHANGE
;Z:0.2
;HEIGHT:0.2
;BEFORE_LAYER_CHANGE
G92 E0.0
;0.2


G1 Z.2 F720
;AFTER_LAYER_CHANGE
;0.2
G1 X103.113 Y90.126 F10800
M204 S800
;TYPE:Skirt/Brim
;WIDTH:0.42
G1 F954.706
G1 X104.301 Y89.03 E.05829
G1 X105.673 Y88.175 E.05829
G1 X107.181 Y87.593 E.05829
G1 X108.772 Y87.304 E.05829
G1 X134.693 Y87.275 E.93465
G1 X141.229 Y87.491 E.2358
G1 X142.441 Y87.683 E.04426
G1 X143.837 Y88.137 E.05293
G1 X145.384 Y88.987 E.06364
G1 X146.621 Y90.029 E.05829
G1 X147.709 Y91.391 E.06288
G1 X148.181 Y92.216 E.03427
G1 X148.55 Y93.069 E.03352
G1 X148.966 Y94.632 E.05829
G1 X149.081 Y95.854 E.04426
G1 X149.077 Y114.903 E.68687
G1 X148.86 Y116.505 E.05829
G1 X148.406 Y117.901 E.05293
G1 X147.78 Y119.103 E.04887
G1 X146.887 Y120.294 E.05368
G1 X145.699 Y121.391 E.05829
G1 X144.802 Y121.989 E.03889
G1 X143.974 Y122.411 E.03352
G1 X143.149 Y122.695 E.03147
G1 X142.633 Y122.787 E.0189
G1 X141.397 Y122.84 E.0446
G1 X115.968 Y122.84 E.91691
G1 X108.782 Y122.616 E.25922
G1 X107.105 Y122.458 E.06076
G1 X106.174 Y122.259 E.03432
G1 X105.069 Y121.726 E.04424
G1 X103.77 Y120.764 E.05829
G1 X102.673 Y119.576 E.05829
G1 X102.075 Y118.679 E.03889
G1 X101.653 Y117.851 E.03352
G1 X101.14 Y116.318 E.05829
G1 X100.919 Y114.567 E.06365
G1 X100.948 Y95.128 E.70092
G1 X101.172 Y93.791 E.04886
G1 X101.653 Y92.382 E.05368
G1 X102.36 Y91.096 E.05293
G1 X103.076 Y90.173 E.0421
M204 S1000
; printing object PS5 digital skate - tpu foot.stl id:0 copy 3
G1 X132.206 Y100.318 F10800
M204 S800
;TYPE:Perimeter
;WIDTH:0.419999
G1 F954.707
G1 X131.688 Y100.011 E.02172
G1 X130.948 Y99.399 E.03464
G1 X130.543 Y98.94 E.02206
G1 X130.029 Y98.129 E.03463
G1 X129.782 Y97.559 E.02237
G1 X129.609 Y96.963 E.02238
G1 X129.489 Y96.01 E.03463
G1 X129.508 Y95.399 E.02206
G1 X129.688 Y94.455 E.03463
G1 X129.898 Y93.872 E.02237
G1 X130.18 Y93.318 E.02241
G1 X130.717 Y92.575 E.03305
G1 X131.184 Y92.102 E.02397
G1 X131.681 Y91.717 E.02264
G1 X132.222 Y91.397 E.02269
G1 X132.792 Y91.15 E.02238
G1 X133.715 Y90.913 E.03435
G1 X134.637 Y90.853 E.03333
G1 X140.631 Y91.038 E.21621
G1 X141.279 Y91.099 E.02347
M73 P0 R30
G1 X141.884 Y91.234 E.02238
G1 X142.778 Y91.588 E.03466
G1 X143.145 Y91.804 E.01536
G1 X143.561 Y92.084 E.01807
G1 X144.039 Y92.506 E.02297
G1 X144.427 Y92.944 E.0211
G1 X144.809 Y93.499 E.0243
G1 X145.094 Y94.059 E.02267
G1 X145.294 Y94.609 E.0211
M73 Q1 S31
G1 X145.445 Y95.266 E.0243
G1 X145.503 Y95.883 E.02234
G1 X145.442 Y96.842 E.03466
G1 X145.268 Y97.566 E.02686
G1 X145.079 Y98.049 E.01869
G1 X144.739 Y98.699 E.02645
G1 X144.459 Y99.115 E.01807
G1 X144.038 Y99.592 E.02295
G1 X143.573 Y100.003 E.02238
M73 P1 R30
G1 X142.761 Y100.518 E.03466
G1 X142.122 Y100.783 E.02493
G1 X141.595 Y100.901 E.01946
G1 X140.91 Y100.981 E.0249
G1 X140.38 Y100.996 E.0191
G1 X134.368 Y100.809 E.21687
G1 X133.369 Y100.695 E.03626
G1 X132.757 Y100.537 E.02279
G1 X132.262 Y100.34 E.01921
M204 S1000
G1 X132.04 Y100.657 F10800
M204 S800
;TYPE:External perimeter
G1 F954.707
G1 X131.471 Y100.321 E.02385
G1 X130.685 Y99.67 E.03678
G1 X130.241 Y99.167 E.0242
G1 X129.694 Y98.306 E.03677
G1 X129.427 Y97.687 E.0243
G1 X129.239 Y97.04 E.02431
G1 X129.111 Y96.028 E.03678
G1 X129.132 Y95.357 E.0242
G1 X129.323 Y94.355 E.03677
G1 X129.552 Y93.721 E.0243
G1 X129.858 Y93.121 E.02432
G1 X130.429 Y92.33 E.03515
G1 X130.934 Y91.819 E.02592
G1 X131.468 Y91.404 E.02439
G1 X132.051 Y91.06 E.0244
M73 Q1 S30
G1 X132.67 Y90.792 E.02431
G1 X133.655 Y90.539 E.03669
G1 X134.631 Y90.475 E.03525
G1 X140.654 Y90.661 E.2173
G1 X141.338 Y90.726 E.02475
G1 X141.996 Y90.873 E.02431
G1 X142.944 Y91.249 E.03678
G1 X143.336 Y91.479 E.01641
G1 X143.796 Y91.789 E.01997
G1 X144.306 Y92.238 E.0245
G1 X144.724 Y92.711 E.02278
G1 X145.134 Y93.306 E.02602
G1 X145.441 Y93.909 E.0244
G1 X145.656 Y94.503 E.02278
G1 X145.818 Y95.206 E.02602
G1 X145.881 Y95.877 E.0243
G1 X145.817 Y96.895 E.03678
G1 X145.627 Y97.68 E.02913
G1 X145.425 Y98.199 E.02007
G1 X145.064 Y98.89 E.02813
G1 X144.755 Y99.35 E.01998
G1 X144.305 Y99.86 E.0245
G1 X143.8 Y100.305 E.02431
G1 X142.938 Y100.852 E.03678
G1 X142.237 Y101.142 E.02738
G1 X141.666 Y101.271 E.02108
G1 X140.939 Y101.357 E.0264
G1 X140.374 Y101.373 E.02041
G1 X134.341 Y101.185 E.21761
G1 X133.301 Y101.066 E.03776
G1 X132.64 Y100.897 E.0246
G1 X132.095 Y100.68 E.02114
M204 S1000
G1 X132.015 Y100.258 F10800
G1 X144.741 Y93.616
M204 S800
;TYPE:Solid infill
;WIDTH:0.430193
G1 F929.577
G1 X143.781 Y92.656 E.05027
G1 X143.385 Y92.306 E.01959
G1 X143.129 Y92.123 E.01166
G1 X142.654 Y91.843 E.02041
G1 X142.269 Y91.691 E.01533
G1 X144.882 Y94.304 E.13687
G1 X145.022 Y94.69 E.01518
G1 X145.112 Y95.082 E.0149
G1 X141.46 Y91.429 E.19128
G1 X141.234 Y91.379 E.00855
G1 X140.823 Y91.34 E.01531
G1 X145.203 Y95.721 E.22942
G1 X145.219 Y95.887 E.0062
G1 X145.196 Y96.261 E.01385
G1 X140.244 Y91.309 E.25933
G1 X139.679 Y91.291 E.02094
G1 X145.163 Y96.776 E.28723
G1 X145.067 Y97.228 E.01711
G1 X139.113 Y91.274 E.31182
G1 X138.548 Y91.256 E.02094
G1 X144.943 Y97.651 E.33489
G1 X144.777 Y98.033 E.01542
G1 X137.983 Y91.239 E.35583
G1 X137.418 Y91.221 E.02094
G1 X144.591 Y98.394 E.37564
G1 X144.384 Y98.735 E.01476
G1 X136.853 Y91.204 E.39439
G1 X136.288 Y91.187 E.02094
G1 X144.145 Y99.044 E.41149
G1 X143.888 Y99.335 E.01437
G1 X135.723 Y91.169 E.42765
G1 X135.157 Y91.152 E.02094
G1 X143.604 Y99.598 E.44236
G1 X143.402 Y99.776 E.00996
G1 X143.299 Y99.841 E.00451
G1 X134.597 Y91.139 E.45577
G1 X134.083 Y91.172 E.01907
G1 X142.964 Y100.054 E.46513
G1 X142.629 Y100.267 E.0147
G1 X133.598 Y91.235 E.47298
G1 X133.162 Y91.347 E.01666
G1 X142.248 Y100.433 E.47584
G1 X141.834 Y100.567 E.0161
G1 X132.746 Y91.478 E.47599
G1 X132.363 Y91.644 E.01542
G1 X141.375 Y100.655 E.47194
G1 X140.873 Y100.701 E.01868
G1 X132.018 Y91.846 E.46372
G1 X131.691 Y92.067 E.01461
G1 X140.336 Y100.712 E.45275
G1 X139.771 Y100.694 E.02094
M73 Q2 S30
G1 X131.383 Y92.306 E.43929
G1 X131.109 Y92.58 E.01434
M73 P2 R30
G1 X139.205 Y100.676 E.42401
G1 X138.64 Y100.659 E.02094
G1 X130.852 Y92.871 E.40787
G1 X130.622 Y93.189 E.01453
G1 X138.075 Y100.641 E.39029
G1 X137.509 Y100.624 E.02094
G1 X130.399 Y93.513 E.37241
G1 X130.214 Y93.875 E.01508
G1 X136.944 Y100.606 E.35249
G1 X136.379 Y100.588 E.02094
G1 X130.057 Y94.266 E.3311
G1 X129.962 Y94.53 E.01039
G1 X129.931 Y94.689 E.00598
G1 X135.814 Y100.571 E.30806
G1 X135.248 Y100.553 E.02094
G1 X129.844 Y95.149 E.28305
G1 X129.79 Y95.43 E.01061
G1 X129.784 Y95.636 E.00764
G1 X134.683 Y100.536 E.25659
G1 X134.092 Y100.493 E.02193
G1 X129.798 Y96.198 E.22492
G1 X129.877 Y96.825 E.0234
G1 X133.474 Y100.422 E.1884
G1 X132.845 Y100.268 E.02399
G1 X132.724 Y100.22 E.00481
G1 X130.111 Y97.606 E.13686
G1 X130.279 Y97.996 E.01572
G1 X130.77 Y98.769 E.03392
G1 X131.098 Y99.141 E.01835
G1 X132.052 Y100.095 E.04995
M204 S1000
; stop printing object PS5 digital skate - tpu foot.stl id:0 copy 3
; printing object PS5 digital skate - tpu foot.stl id:0 copy 2
G1 X132.206 Y118.828 F10800
M204 S800
;TYPE:Perimeter
;WIDTH:0.419999
G1 F954.707
G1 X131.688 Y118.521 E.02172
G1 X130.948 Y117.908 E.03464
G1 X130.543 Y117.449 E.02206
G1 X130.029 Y116.638 E.03463
G1 X129.782 Y116.069 E.02237
G1 X129.609 Y115.473 E.02238
G1 X129.489 Y114.52 E.03463
G1 X129.508 Y113.908 E.02206
G1 X129.688 Y112.965 E.03463
G1 X129.898 Y112.381 E.02237
G1 X130.18 Y111.827 E.02241
G1 X130.717 Y111.084 E.03305
G1 X131.184 Y110.612 E.02397
G1 X131.681 Y110.227 E.02264
G1 X132.222 Y109.906 E.02269
G1 X132.792 Y109.66 E.02238
G1 X133.715 Y109.423 E.03435
G1 X134.637 Y109.362 E.03333
G1 X140.631 Y109.548 E.21621
G1 X141.279 Y109.609 E.02347
G1 X141.884 Y109.744 E.02238
G1 X142.778 Y110.098 E.03466
G1 X143.145 Y110.314 E.01536
G1 X143.561 Y110.594 E.01807
G1 X144.039 Y111.015 E.02297
G1 X144.427 Y111.453 E.0211
G1 X144.809 Y112.009 E.0243
G1 X145.094 Y112.569 E.02267
G1 X145.294 Y113.119 E.0211
G1 X145.445 Y113.776 E.0243
G1 X145.503 Y114.393 E.02234
G1 X145.442 Y115.352 E.03466
G1 X145.268 Y116.076 E.02686
G1 X145.079 Y116.559 E.01869
G1 X144.739 Y117.209 E.02645
G1 X144.459 Y117.625 E.01807
G1 X144.038 Y118.102 E.02295
G1 X143.573 Y118.513 E.02238
G1 X142.761 Y119.028 E.03466
G1 X142.122 Y119.293 E.02493
G1 X141.595 Y119.41 E.01946
G1 X140.91 Y119.491 E.0249
G1 X140.38 Y119.506 E.0191
G1 X134.368 Y119.318 E.21687
G1 X133.369 Y119.204 E.03626
G1 X132.757 Y119.047 E.02279
G1 X132.262 Y118.85 E.01921
M204 S1000
G1 X132.04 Y119.167 F10800
M204 S800
;TYPE:External perimeter
G1 F954.707
G1 X131.471 Y118.83 E.02385
G1 X130.685 Y118.18 E.03678
G1 X130.241 Y117.677 E.0242
G1 X129.694 Y116.815 E.03677
G1 X129.427 Y116.197 E.0243
G1 X129.239 Y115.55 E.02431
G1 X129.111 Y114.538 E.03678
G1 X129.132 Y113.867 E.0242
G1 X129.323 Y112.865 E.03677
G1 X129.552 Y112.231 E.0243
G1 X129.858 Y111.63 E.02432
G1 X130.429 Y110.84 E.03515
G1 X130.934 Y110.329 E.02592
G1 X131.468 Y109.914 E.02439
G1 X132.051 Y109.57 E.0244
G1 X132.67 Y109.302 E.02431
G1 X133.655 Y109.049 E.03669
G1 X134.631 Y108.985 E.03525
G1 X140.654 Y109.171 E.2173
G1 X141.338 Y109.236 E.02475
G1 X141.996 Y109.383 E.02431
G1 X142.944 Y109.758 E.03678
G1 X143.336 Y109.989 E.01641
G1 X143.796 Y110.298 E.01997
G1 X144.306 Y110.748 E.0245
G1 X144.724 Y111.221 E.02278
G1 X145.134 Y111.815 E.02602
G1 X145.441 Y112.418 E.0244
G1 X145.656 Y113.012 E.02278
G1 X145.818 Y113.716 E.02602
G1 X145.881 Y114.387 E.0243
G1 X145.817 Y115.405 E.03678
G1 X145.627 Y116.19 E.02913
G1 X145.425 Y116.709 E.02007
G1 X145.064 Y117.4 E.02813
G1 X144.755 Y117.86 E.01998
G1 X144.305 Y118.369 E.0245
G1 X143.8 Y118.815 E.02431
G1 X142.938 Y119.362 E.03678
G1 X142.237 Y119.652 E.02738
G1 X141.666 Y119.781 E.02108
G1 X140.939 Y119.867 E.0264
G1 X140.374 Y119.883 E.02041
G1 X134.341 Y119.695 E.21761
G1 X133.301 Y119.576 E.03776
G1 X132.64 Y119.406 E.0246
G1 X132.095 Y119.189 E.02114
M204 S1000
G1 X132.015 Y118.768 F10800
G1 X144.741 Y112.125
M204 S800
;TYPE:Solid infill
;WIDTH:0.430193
G1 F929.577
G1 X143.781 Y111.165 E.05027
G1 X143.385 Y110.816 E.01959
G1 X143.129 Y110.632 E.01166
G1 X142.654 Y110.353 E.02041
G1 X142.269 Y110.201 E.01533
G1 X144.882 Y112.814 E.13687
G1 X145.022 Y113.199 E.01518
G1 X145.112 Y113.591 E.0149
G1 X141.46 Y109.939 E.19128
G1 X141.234 Y109.889 E.00855
G1 X140.823 Y109.85 E.01531
G1 X145.203 Y114.23 E.22942
G1 X145.219 Y114.397 E.0062
G1 X145.196 Y114.77 E.01385
G1 X140.244 Y109.819 E.25933
G1 X139.679 Y109.801 E.02094
G1 X145.163 Y115.286 E.28723
G1 X145.067 Y115.738 E.01711
G1 X139.113 Y109.784 E.31182
G1 X138.548 Y109.766 E.02094
G1 X144.943 Y116.161 E.33489
G1 X144.777 Y116.543 E.01542
G1 X137.983 Y109.749 E.35583
G1 X137.418 Y109.731 E.02094
G1 X144.591 Y116.904 E.37564
G1 X144.384 Y117.244 E.01476
M73 P3 R30
M73 Q3 S30
G1 X136.853 Y109.714 E.39439
G1 X136.288 Y109.696 E.02094
G1 X144.145 Y117.553 E.41149
G1 X143.888 Y117.845 E.01437
G1 X135.723 Y109.679 E.42765
G1 X135.157 Y109.661 E.02094
G1 X143.604 Y118.108 E.44236
G1 X143.402 Y118.286 E.00996
G1 X143.299 Y118.351 E.00451
G1 X134.597 Y109.648 E.45577
G1 X134.083 Y109.682 E.01907
G1 X142.964 Y118.564 E.46513
G1 X142.629 Y118.776 E.0147
G1 X133.598 Y109.745 E.47298
G1 X133.162 Y109.857 E.01666
G1 X142.248 Y118.943 E.47584
G1 X141.834 Y119.077 E.0161
G1 X132.746 Y109.988 E.47599
G1 X132.363 Y110.153 E.01542
G1 X141.375 Y119.165 E.47194
G1 X140.873 Y119.21 E.01868
G1 X132.018 Y110.356 E.46372
G1 X131.691 Y110.576 E.01461
G1 X140.336 Y119.221 E.45275
G1 X139.771 Y119.204 E.02094
G1 X131.383 Y110.816 E.43929
G1 X131.109 Y111.09 E.01434
G1 X139.205 Y119.186 E.42401
G1 X138.64 Y119.169 E.02094
G1 X130.852 Y111.381 E.40787
G1 X130.622 Y111.699 E.01453
G1 X138.075 Y119.151 E.39029
G1 X137.509 Y119.133 E.02094
G1 X130.399 Y112.022 E.37241
G1 X130.214 Y112.385 E.01508
G1 X136.944 Y119.116 E.35249
G1 X136.379 Y119.098 E.02094
G1 X130.057 Y112.776 E.3311
G1 X129.962 Y113.04 E.01039
G1 X129.931 Y113.198 E.00598
G1 X135.814 Y119.08 E.30806
G1 X135.248 Y119.063 E.02094
G1 X129.844 Y113.658 E.28305
G1 X129.79 Y113.94 E.01061
G1 X129.784 Y114.146 E.00764
G1 X134.683 Y119.045 E.25659
G1 X134.092 Y119.002 E.02193
G1 X129.798 Y114.707 E.22492
G1 X129.877 Y115.334 E.0234
G1 X133.474 Y118.932 E.1884
G1 X132.845 Y118.778 E.02399
G1 X132.724 Y118.729 E.00481
G1 X130.111 Y116.116 E.13686
G1 X130.279 Y116.506 E.01572
G1 X130.77 Y117.279 E.03392
G1 X131.098 Y117.651 E.01835
G1 X132.052 Y118.605 E.04995
M204 S1000
; stop printing object PS5 digital skate - tpu foot.stl id:0 copy 2
; printing object PS5 digital skate - tpu foot.stl id:0 copy 0
G1 X107.214 Y118.828 F10800
M204 S800
;TYPE:Perimeter
;WIDTH:0.419999
G1 F954.707
G1 X106.696 Y118.521 E.02172
G1 X105.956 Y117.908 E.03464
G1 X105.551 Y117.449 E.02206
G1 X105.037 Y116.638 E.03463
G1 X104.79 Y116.069 E.02237
G1 X104.617 Y115.473 E.02238
G1 X104.497 Y114.52 E.03463
G1 X104.516 Y113.908 E.02206
G1 X104.696 Y112.965 E.03463
G1 X104.906 Y112.381 E.02237
M73 Q4 S30
G1 X105.188 Y111.827 E.02241
G1 X105.725 Y111.084 E.03305
G1 X106.192 Y110.612 E.02397
G1 X106.689 Y110.227 E.02264
G1 X107.23 Y109.906 E.02269
G1 X107.8 Y109.66 E.02238
G1 X108.723 Y109.423 E.03435
M73 P4 R30
G1 X109.645 Y109.362 E.03333
G1 X115.639 Y109.548 E.21621
G1 X116.287 Y109.609 E.02347
G1 X116.892 Y109.744 E.02238
G1 X117.786 Y110.098 E.03466
G1 X118.153 Y110.314 E.01536
G1 X118.569 Y110.594 E.01807
G1 X119.047 Y111.015 E.02297
G1 X119.435 Y111.453 E.0211
G1 X119.817 Y112.009 E.0243
G1 X120.102 Y112.569 E.02267
G1 X120.302 Y113.119 E.0211
G1 X120.452 Y113.776 E.0243
G1 X120.511 Y114.393 E.02234
G1 X120.45 Y115.352 E.03466
G1 X120.275 Y116.076 E.02686
G1 X120.087 Y116.559 E.01869
G1 X119.747 Y117.209 E.02645
G1 X119.467 Y117.625 E.01807
G1 X119.046 Y118.102 E.02295
G1 X118.58 Y118.513 E.02238
G1 X117.769 Y119.028 E.03466
G1 X117.13 Y119.293 E.02493
G1 X116.603 Y119.41 E.01946
G1 X115.918 Y119.491 E.0249
G1 X115.388 Y119.506 E.0191
G1 X109.376 Y119.318 E.21687
G1 X108.377 Y119.204 E.03626
G1 X107.765 Y119.047 E.02279
G1 X107.27 Y118.85 E.01921
M204 S1000
G1 X107.047 Y119.167 F10800
M204 S800
;TYPE:External perimeter
G1 F954.707
G1 X106.478 Y118.83 E.02385
G1 X105.693 Y118.18 E.03678
G1 X105.249 Y117.677 E.0242
G1 X104.702 Y116.815 E.03677
G1 X104.435 Y116.197 E.0243
G1 X104.247 Y115.55 E.02431
G1 X104.119 Y114.538 E.03678
G1 X104.14 Y113.867 E.0242
G1 X104.331 Y112.865 E.03677
G1 X104.559 Y112.231 E.0243
G1 X104.866 Y111.63 E.02432
G1 X105.436 Y110.84 E.03515
G1 X105.942 Y110.329 E.02592
G1 X106.476 Y109.914 E.02439
G1 X107.059 Y109.57 E.0244
G1 X107.677 Y109.302 E.02431
M73 P4 R29
G1 X108.663 Y109.049 E.03669
G1 X109.639 Y108.985 E.03525
G1 X115.662 Y109.171 E.2173
G1 X116.346 Y109.236 E.02475
G1 X117.004 Y109.383 E.02431
